X:147
T:Septieme estampie real, La
C:Anonyme
O:XIIIe siècle
M:6/8
K:C
FGA GF/E/F | DGLA Fz2 | GGLA F/E/FG | A3A3 |
FGA GF/E/F | DGLA Fz2 | GGLA FE2 | F3F3 ||
ccd fe/d/c | _B3Bz2 | d_Bd cBA/G/ | A3A2z |GGLA F/E/FG | A3A3 |
ccd fe/d/c | _B3Bz2 | d_Bd cBA/G/ | A3A2z |GGLA FE2 | F3F2 || A |
c/B/cA GAB | c2z cd/c/B/A/ | GAG F2z | GGLA F/E/FG | A3 A2 A |
c/B/cA GAB | c2z cd/c/B/A/ | GAG F2z | GGLA FE2 | F3F3 ||
DG/F/G F/E/FG | A2z Acd | AGF/G/ A2z | GGLA F/E/FG | A3A3 |
DG/F/G F/E/FG | A2z Acd | AGF/G/ A2z | GGLA FE2 | F3F3 |]





%%header "$P0	 $IR 	$P1"
%%footer $D - Éditions Galouvielle - 2009 - À usage librement privé dans le cadre familial

